X:1
T:Faneuil Hall, 12.12.88
T:Franz J. Haydn, 1798, arr Charles Case, 1902
T:Faneuil Hall, 12.12.88
T:Public Domain
C:Franz J. Haydn, 1798, arr Charles Case, 1902
Z:Public Domain
%%score ( 1 2 ) ( 3 4 )
L:1/8
M:4/4
K:C
V:1 treble 
V:2 treble 
V:3 bass 
V:4 bass 
V:1
 G2 | [Ec]2 [Ec]2 [Ec]2 [Ec]2 | [Gd]6 [Gd]2 | [Ge]2 [Gc]2 A2 [Ad]2 | (c4 B2) (GA) | %5
 [GB]2 [Gc]2 [Gd]2 [Ge]2 | [Gf]6 [Ge]2 | [Ad]2 [Fd]2 [Ec]2 [FB]2 | [Ec]6 z2 | (f2 d2) [GB]2 G2 | %10
 [Gc]6 [Gc]2 | (f2 d2) (B2 G2) | [Gc]6 [EG]2 | ([FA]2 [GB]2) ([Ac]2 [Bd]2) | [ce]6 [Af]2 | %15
 ([Ge]2 [Fd]2) ([Ec]2 [FB]2) | [Ec]6 |] %17
V:2
 G2 | x8 | x8 | x4 A2 x2 | G6 G2 | x8 | x8 | x8 | x8 | B4 G2 x2 | x8 | B4 G4 | x8 | x8 | x8 | x8 | %16
 x6 |] %17
V:3
 G,2 | [C,G,]2 [C,G,]2 [C,C]2 [C,C]2 | [G,,B,]6 [B,,D]2 | [B,,C]2 [E,C]2 [F,C]2 [D,F]2 | %4
 (E4 D2) G,2 | [F,D]2 [E,C]2 [D,B,]2 [C,C]2 | [B,,D]6 [C,C]2 | [F,C]2 [F,A,]2 G,2 G,2 | %8
 [C,G,]6 z2 | [G,D]4 [G,D]2 [G,B,]2 | ([CE]2 [G,C]2 [E,G,]2) [C,E]2 | [G,D]4 (D2 B,2) | %12
 ([CE]2 [G,C]2 [E,G,]2) [E,G,]2 | ([F,A,]2 [G,B,]2) ([A,C]2 [B,D]2) | [CE]6 [F,C]2 | %15
 (C2 B,2) (C2 G,2) | [C,G,]6 |] %17
V:4
 G,2 | x8 | x8 | x8 | G,6 G,2 | x8 | x8 | x4 G,2 G,2 | x8 | x8 | x8 | x4 G,4 | x8 | x8 | x8 | %15
 G,4 G,4 | x6 |] %17

